packages/core/src/svgs/tokens/branded/PINKSALE.svg

<svg width="24" height="24" viewBox="0 0 24 24" fill="none" xmlns="http://www.w3.org/2000/svg">
<path d="M20.0833 6.97221L19.5 5.05555L18.9166 6.97221L17.0001 7.55555L18.9166 8.13888L19.5 10.0556L20.0833 8.13888L22 7.55555L20.0833 6.97221ZM5.88889 7.69445C5.88889 7.46666 6.06112 7.27778 6.27778 7.27778H9.38889C9.60559 7.27778 9.77774 7.46666 9.77774 7.69445C9.77774 7.92222 9.60559 8.1111 9.38889 8.1111H6.27778C6.06112 8.1111 5.88889 7.92222 5.88889 7.69445ZM13.1112 7.69445C13.1112 7.46666 13.2833 7.27778 13.5001 7.27778H16.6112C16.8278 7.27778 17.0001 7.46666 17.0001 7.69445C17.0001 7.92222 16.8278 8.1111 16.6112 8.1111H13.5001C13.2833 8.1111 13.1112 7.92222 13.1112 7.69445ZM7.00001 9.76667C7.00001 9.31111 7.37223 8.94444 7.83333 8.94444C8.29445 8.94444 8.66667 9.31111 8.66667 9.76667V12.5667C8.66375 12.7857 8.57466 12.9948 8.4187 13.1487C8.26273 13.3026 8.05243 13.3889 7.83333 13.3889C7.61423 13.3889 7.40394 13.3026 7.24798 13.1487C7.09201 12.9948 7.00293 12.7857 7.00001 12.5667V9.76667ZM14.2222 9.76667C14.2222 9.31111 14.5944 8.94444 15.0556 8.94444C15.5167 8.94444 15.8889 9.31111 15.8889 9.76667V12.5667C15.886 12.7857 15.7968 12.9948 15.6409 13.1487C15.4849 13.3026 15.2747 13.3889 15.0556 13.3889C14.8364 13.3889 14.6261 13.3026 14.4702 13.1487C14.3143 12.9948 14.2252 12.7857 14.2222 12.5667V9.76667ZM5.33334 12.8333C5.33334 13.2754 5.15774 13.6992 4.84518 14.0118C4.53263 14.3244 4.1087 14.5 3.66667 14.5C3.22464 14.5 2.80072 14.3244 2.48816 14.0118C2.1756 13.6992 2 13.2754 2 12.8333C2 12.3913 2.1756 11.9674 2.48816 11.6549C2.80072 11.3423 3.22464 11.1667 3.66667 11.1667C4.1087 11.1667 4.53263 11.3423 4.84518 11.6549C5.15774 11.9674 5.33334 12.3913 5.33334 12.8333ZM19.2222 14.5C19.6642 14.5 20.0882 14.3244 20.4008 14.0118C20.7133 13.6992 20.8889 13.2754 20.8889 12.8333C20.8889 12.3913 20.7133 11.9674 20.4008 11.6549C20.0882 11.3423 19.6642 11.1667 19.2222 11.1667C18.7803 11.1667 18.3562 11.3423 18.0437 11.6549C17.7312 11.9674 17.5555 12.3913 17.5555 12.8333C17.5555 13.2754 17.7312 13.6992 18.0437 14.0118C18.3562 14.3244 18.7803 14.5 19.2222 14.5ZM15.2222 16.9111C15.3889 17.1388 15.3667 17.4834 15.1667 17.6723C14.6667 18.1389 13.3 18.9444 11.3444 18.9444C9.4 18.9444 8.13334 18.1389 7.69445 17.6389C7.50557 17.4278 7.51111 17.0834 7.69445 16.8778C7.73618 16.8286 7.78809 16.7891 7.84662 16.762C7.90514 16.7349 7.96885 16.7209 8.03334 16.7209C8.09783 16.7209 8.16154 16.7349 8.22006 16.762C8.27859 16.7891 8.3305 16.8286 8.37223 16.8778C8.60556 17.1444 9.60559 17.8667 11.3444 17.8667C13.0833 17.8667 14.2334 17.1444 14.5445 16.85C14.5905 16.8043 14.6459 16.7693 14.7069 16.7472C14.768 16.7252 14.833 16.7169 14.8976 16.7227C14.9621 16.7286 15.0246 16.7484 15.0808 16.7809C15.1369 16.8135 15.1851 16.8579 15.2222 16.9111Z" fill="#F95192"/>
</svg>

<svg xmlns="http://www.w3.org/2000/svg" width="24" height="24" fill="none" viewBox="0 0 24 24">
    <path fill="#F95192" d="M20.083 6.972 19.5 5.056l-.583 1.916L17 7.556l1.917.583.583 1.917.583-1.917L22 7.556zM5.89 7.694c0-.227.172-.416.389-.416h3.11c.218 0 .39.189.39.416 0 .228-.172.417-.39.417h-3.11c-.217 0-.39-.189-.39-.417m7.222 0c0-.227.172-.416.39-.416h3.11c.217 0 .39.189.39.416 0 .228-.173.417-.39.417h-3.11c-.218 0-.39-.189-.39-.417M7 9.767c0-.456.372-.823.833-.823s.834.367.834.823v2.8a.833.833 0 0 1-1.667 0zm7.222 0c0-.456.372-.823.834-.823.46 0 .833.367.833.823v2.8a.834.834 0 0 1-1.667 0zm-8.889 3.066a1.667 1.667 0 1 1-3.333 0 1.667 1.667 0 0 1 3.333 0m13.89 1.667a1.667 1.667 0 1 0 0-3.334 1.667 1.667 0 0 0 0 3.334m-4 2.411c.166.228.144.572-.056.761-.5.467-1.867 1.272-3.823 1.272-1.944 0-3.21-.805-3.65-1.305a.59.59 0 0 1 0-.761.444.444 0 0 1 .678 0c.234.266 1.234.989 2.972.989 1.74 0 2.89-.723 3.2-1.017a.446.446 0 0 1 .678.061"/>
</svg>
